X:900
M:C|
L:1/8
K:D
|:cd|ecAc fdAf|gfgf gece|dcdB BAGF|E2e2e2cd|ecAc fdAf|gfgf gece|
dcde fef^g|a^gag a2:|
|:F2|B2B^A B2Bc|dcde f3e|edcd Bcde|f2F2F2^A2|B2B^A B2Bc|
dcde fgfe|fgfe dcB^A|B2B2B2:|

